icons/op-move-24.svg

<svg width="24" height="24" viewBox="0 0 24 24" fill="none" xmlns="http://www.w3.org/2000/svg">
<path d="M20 12L15.7333 7.97059V9.88235C7.2 9.88235 6.5098 14.6176 6.5098 15.5588C8.36078 11.7647 15.7333 13.6471 15.7333 13.6471V15.5588L20 12ZM4 6V18H14.6667V16H13.6V17H5.06667V7H13.6V8H14.6667V6H4Z" fill="black"/>
</svg>

<svg xmlns="http://www.w3.org/2000/svg" width="24" height="24" viewBox="0 0 24 24"><path d="m20 12-4.267-4.029v1.911c-8.533 0-9.223 4.736-9.223 5.677 1.851-3.794 9.223-1.912 9.223-1.912v1.912L20 12ZM4 6v12h10.667v-2H13.6v1H5.067V7H13.6v1h1.067V6H4Z"/></svg>
